X: 131007
T: The BANKS OF THE ALLAN
Q: "Scotch Jig."
R: Jig.
%R: jig
B: James Kerr "Merry Melodies" v.1 p.31 s.0 #7
Z: 2016 John Chambers <jc:trillian.mit.edu>
M: 6/8
L: 1/8
K: D
DE |\
FGF FED | FAA uA2ud | Bdd Add | Bdd Add |\
FGF FED | FAA uA2ud | BdB AFD | FEE E :|
|: de |\
fgf fed | faa a2g | fgf fed | gbb b2a |\
fga efg | def fed | BdB AFD | FEE E :|

%%sep 1 1 500
%%sep 1 1 500

